X:1
T:Title
%%score { ( 1 3 ) | ( 2 4 ) }
L:1/8
M:4/4
K:G
V:1 treble nm="Grand Piano"
V:3 treble 
V:2 bass 
V:4 bass 
V:1
 z4 z[Q:1/4=90] E=F^F | G4 z4 | z C z C z cdc | B4 z4 | z CCC z E=F^F | G4 z4 | z C z C z GGA | %7
 B4 z4 |[M:5/8] d-d- d3 |[M:3/8] G[Gc]d |[M:4/4] e4 z4 | [Ec]2 [EG]2 z [Ec][Ed][Ec] | B4 z4 | %13
 G-[CG-][CG-][DG-] [EG]G[Gc]d | e4 z4 | [A=f]2 [=FA]2 z [Ac][^Gc]G | GGFG e3 d | %17
[M:11/16] c/-c/-c/-c/-c/-c/-c/-c-<c |] %18
V:2
 z8 | [C,,C,][E,G,][E,G,][E,G,C] [^D,F,C]2 z2 | [C,,C,][E,G,][E,G,C][E,G,] [E,G,]2 z2 | %3
 [G,,,G,,][=F,G,][F,G,][F,G,B,] [F,G,B,]2 z2 | [C,,C,][E,G,][E,G,][E,G,] [E,G,]2 z2 | %5
 [C,,C,][E,G,][E,G,][E,G,C] [^D,F,C]2 z2 | [C,,C,][E,G,][E,G,C][E,G,] [E,G,]2 [^D,G,C]2 | %7
 [D,,D,][D,G,][D,G,][D,G,B,] [D,F,C]2 z2 |[M:5/8] G,,[=F,G,][F,G,] [F,G,][F,G,] | %9
[M:3/8] G,[E,G,][K:treble][G,B,G] | %10
[M:4/4] [CG][K:bass][C,G,][C,G,][C,G,] [=F,A,=F][F,A,F][F,A,F][F,A,F] | %11
 [C,G,]2 [C,C]2 z [C,G,][C,G,][C,G,] | [D,G,][D,G,][D,G,][G,,G,] [G,,G,][G,,G,][G,,G,][G,,G,] | %13
 [C,G,][C,E,][C,E,][C,=F,] [C,G,]G,[E,G,][K:treble][G,B,G] | %14
 [CG][K:bass][C,C][C,C][C,C] [C,C][C,C][C,C][C,C] | [=F,C]2 [F,C]2 z [F,C][F,C][F,CD] | %16
 [G,CE]G,F,G,[K:treble] [G,B,G]3 [G,B,=F] |[M:11/16][K:bass] z G,B,A,G,3/2 |] %18
V:3
 x8 | z CCG AABA | G2 E2 C2 z2 | z B,B,D =FGBA | E4 C2 z2 | z CCG AABA | G2 E2 C2 z2 | %7
 z B,B,B BABc |[M:5/8] z B,B, B,B, |[M:3/8] x3 |[M:4/4] z EE[Ed] cdcA | x8 | %12
 =FFF[B,D] [A,C][B,D][FB][FA] | .E2 z2 z4 | z GG[Ge] [_Bd][Bc][Bd][Be] | x8 | x8 | %17
[M:11/16] [CE]EG=FE3/2 |] %18
V:4
 x8 | x8 | x8 | x8 | x8 | x8 | x8 | x8 |[M:5/8] x5 |[M:3/8] x2[K:treble] x |[M:4/4] x[K:bass] x7 | %11
 x8 | x8 | x7[K:treble] x | x[K:bass] x7 | x8 | x4[K:treble] x4 | %17
[M:11/16][K:bass] C,/-C,/-C,/-C,/-C,/-C,/-C,/-C,-<C, |] %18

